mimetypes/64/torrent.svg

<?xml version="1.0" encoding="UTF-8"?>
<!-- Created with Inkscape (http://www.inkscape.org/) -->
<svg width="64" height="64" version="1.1" xmlns="http://www.w3.org/2000/svg" xmlns:cc="http://creativecommons.org/ns#" xmlns:dc="http://purl.org/dc/elements/1.1/" xmlns:rdf="http://www.w3.org/1999/02/22-rdf-syntax-ns#">
	<defs>
		<linearGradient id="a" x1="37" x2="48.96" y1="36" y2="46.16" gradientUnits="userSpaceOnUse">
			<stop stop-color="#34d648" stop-opacity=".0068966" offset="0"/>
			<stop stop-color="#34d648" stop-opacity=".033621" offset=".5903"/>
			<stop stop-color="#34d648" stop-opacity=".07931" offset=".7003"/>
			<stop stop-color="#34d675" stop-opacity=".30517" offset=".8081"/>
			<stop stop-color="#34d679" stop-opacity=".42155" offset=".9019"/>
			<stop stop-color="#34d648" stop-opacity=".55" offset="1"/>
		</linearGradient>
		<radialGradient id="b" cx="46.87" cy="36.89" r="14.16" gradientTransform="matrix(1.44,0,0,2.118,-19.19,-35.79)" gradientUnits="userSpaceOnUse">
			<stop stop-color="#002455" stop-opacity=".3139" offset="0"/>
			<stop stop-color="#0d2548" stop-opacity=".1428" offset="1"/>
		</radialGradient>
		<linearGradient id="d" x1="82.74" x2="71" y1="79.42" y2="69" gradientTransform="translate(-34,-33)" gradientUnits="userSpaceOnUse">
			<stop stop-color="#1f855e" offset="0"/>
			<stop stop-color="#1e7f5a" offset=".2523"/>
			<stop stop-color="#218c63" offset="1"/>
		</linearGradient>
	</defs>
	<metadata>
		<rdf:RDF>
			<cc:Work rdf:about="">
				<dc:format>image/svg+xml</dc:format>
				<dc:type rdf:resource="http://purl.org/dc/dcmitype/StillImage"/>
				<dc:title/>
			</cc:Work>
		</rdf:RDF>
	</metadata>
	<path d="m4 0h60v62h-60z" fill="#20865f"/>
	<path d="m4 0-2 1v3 24.5 1.5h2v-1.5zm2 0v1 2 0.5 2 7 1.5 0.5 10.5 15 2.5 11 10.5h2v-13-1.5-7-37-2-0.5-3zm4 0v7 8 2 0.5 2 9 2 1 1.5 11 4 6 2.5 5.5 2h2v-7.5-37-2-0.5-17zm4 0v6.5 11 1.5 0.5 10.5 2 0.5 11 13 1.5 4h2v-4-25.5-0.5-32zm8 0v1.5 9.5 14 2.5 8 1.5 1.5 9.5h2v-12.5-8-2.5-25zm4 0v6.5 3 1.5 6.5 12.5 11 2.5 11 1.5 6h2v-6-12.5-37-2.5-4zm4 0v6 3 2.5 4.5 6.5 18 1.5 4 2.5 4.5 6.5h2v-11-37-6.5-1.5-3.5zm4 0v5.5 1 10 5.5 18 2.5 4 1.5 5.5 5.5h2v-11-5.5-37-2.5-3zm4 0v0.5 8.5 2.5 5.5 2.5 11 11 1.5 11 2.5 5.5h2v-5.5-37-13.5-1.5-4-0.5zm4 0v0.5 0.5 10.5 14 1.5 8 2.5 0.5 10.5h2v-11-37-0.5zm8 0v6 11 2 0.5 2 9 1.5 11 13 2.5 3.5h2v-3.5-37-2-0.5-19zm4 0v7.5 8 1.5 0.5 1.5 9 2 1 2.5 4 7 4 6 1.5 6h2v-24.5-4-2.5-31zm4 0v1.5 1.5 9 2 0.5 11 15 1.5 9.5 1.5 9h2v-10.5-2.5-7-27.5-0.5-14zm4 0v4.5 16 1.5 6 2 0.5 2 0.5 8.5 2 16 1.5 1h2v-29.5-2-0.5-30zm-44 7v2.5 11 6.5 17 2.5 5 1.5 4.5 4.5h2v-9-6.5-37-2.5zm28 0.5v6.5 2.5 3.5 7.5 17 1.5 5 2.5 3.5 5h2v-8.5-37-7.5-1.5zm-44 23v3.5 28l2 2v-33.5z" color="#000000" fill="#e0ff01" fill-opacity=".069219"/>
	<path d="m0 2h60v31l-26 31h-34z" fill="#33af72"/>
	<path d="m0 2v2 16 2 0.5 2 4 1.5 3.5 0.5 7 2 16 2.5 0.5l2 2v-2.5-37-2-0.5-18-2h-2zm4 0v1 0.5 2 7 1.5 0.5 10.5 15 2.5 11 10.5h2v-13-1.5-7-37-2-0.5-1h-2zm4 0v5 8 2 0.5 2 9 2 1 1.5 11 4 6 2.5 7.5h2v-7.5-37-2-0.5-15h-2zm4 0v4.5 11 1.5 0.5 10.5 2 0.5 11 13 1.5 6h2v-6-25.5-0.5-30h-2zm8 0v9 14 2.5 8 1.5 1.5 9.5h2v-12.5-8-2.5-23h-2zm4 0v4.5 3 1.5 6.5 12.5 11 2.5 11 1.5 8h2v-8-12.5-37-2.5-2h-2zm4 0v4 3 2.5 4.5 6.5 18 1.5 4 2.5 4.5 6.5h2v-11-37-6.5-1.5-1.5h-2zm4 0v3.5 1 10 5.5 18 2.5 4 1.5 5.5 5.5h2v-11-5.5-37-2.5-1h-2zm4 0v7 2.5 5.5 2.5 11 11 1.5 11 2.5 5.125l2-2.4062v-2.7188-37-13.5-1.5-2.5h-2zm4 0v9.5 14 1.5 8 2.5 0.5 10.5h2v-11-2.5-33h-2zm8 0v4 11 2 0.5 2 9 1.5 11 4.3125l2-2.375v-1.9375-21.5-2-0.5-17h-2zm4 0v5.5 8 1.5 0.5 1.5 9 2 1 2.5 4 5.0312l2-2.375v-2.6562-2.5-1.5-2.5-29h-2zm4 0v1 9 2 0.5 11 12.281l2-2.4062v-9.875-11-0.5-12h-2zm-40 5v2.5 11 6.5 17 2.5 5 1.5 4.5 6.5h2v-11-6.5-37-2.5h-2zm28 0.5v6.5 2.5 3.5 7.5 17 1.5 5 1.0625l0.89453-1.0625h0.011719l1.0938-1.3125v-3.6875-29.5-7.5-1.5h-2z" color="#000000" fill="#e0ff01" fill-opacity=".069219"/>
	<path d="m0 2h60v31l-26 31h-34z" color="#000000" fill="url(#a)"/>
	<path d="m21 23v-9h3l-6-6-6 6h3v7 7h3l-6 6-6.1818-6h3.1818l9e-7 -9" color="#000000" fill="none" stroke="#e5f0d6" stroke-width="2"/>
	<path d="m60 2v31l-24.32 29h28.32v-56z" fill="url(#b)"/>
	<path d="m34 64 26-31c-2.329 2.776-4.361 3-11 3h-12v15c0 6.644 0.04437 9.37-3 13z" fill="url(#d)"/>
</svg>

<?xml version="1.0" encoding="UTF-8" standalone="no"?>
<!-- Created with Inkscape (http://www.inkscape.org/) -->

<svg
   xmlns:dc="http://purl.org/dc/elements/1.1/"
   xmlns:cc="http://creativecommons.org/ns#"
   xmlns:rdf="http://www.w3.org/1999/02/22-rdf-syntax-ns#"
   xmlns:svg="http://www.w3.org/2000/svg"
   xmlns="http://www.w3.org/2000/svg"
   xmlns:sodipodi="http://sodipodi.sourceforge.net/DTD/sodipodi-0.dtd"
   xmlns:inkscape="http://www.inkscape.org/namespaces/inkscape"
   version="1.1"
   width="64"
   height="64"
   id="svg13094"
   inkscape:version="0.92.2 5c3e80d, 2017-08-06"
   sodipodi:docname="application-x-bittorrent.svg">
  <sodipodi:namedview
     pagecolor="#ffffff"
     bordercolor="#666666"
     borderopacity="1"
     objecttolerance="10"
     gridtolerance="10"
     guidetolerance="10"
     inkscape:pageopacity="0"
     inkscape:pageshadow="2"
     inkscape:window-width="1920"
     inkscape:window-height="1033"
     id="namedview60"
     showgrid="false"
     inkscape:zoom="5.2149125"
     inkscape:cx="11.306367"
     inkscape:cy="37.176171"
     inkscape:window-x="-10"
     inkscape:window-y="25"
     inkscape:window-maximized="1"
     inkscape:current-layer="svg13094" />
  <defs
     id="defs11" />
  <metadata
     id="metadata13099">
    <rdf:RDF>
      <cc:Work
         rdf:about="">
        <dc:format>image/svg+xml</dc:format>
        <dc:type
           rdf:resource="http://purl.org/dc/dcmitype/StillImage" />
        <dc:title />
      </cc:Work>
    </rdf:RDF>
  </metadata>
  <path
     d="M 4,0 64,0 64,62 4,62 z"
     id="path3960"
     style="fill:#218c63;fill-rule:nonzero;fill-opacity:1" />
  <path
     style="color:#000000;display:inline;overflow:visible;visibility:visible;fill:#e0ff01;fill-opacity:0.06921944;fill-rule:nonzero;stroke:none;stroke-width:1;marker:none;enable-background:accumulate"
     d="M 4,0 2,1 V 4 28.5 30 h 2 v -1.5 z m 2,0 v 1 2 0.5 2 7 1.5 0.5 10.5 15 2.5 11 V 64 H 8 V 51 49.5 42.5 5.5 3.5 3 0 Z m 4,0 v 7 8 2 0.5 2 9 2 1 1.5 11 4 6 2.5 5.5 2 h 2 v -7.5 -37 -2 V 17 0 Z m 4,0 v 6.5 11 1.5 0.5 10.5 2 0.5 11 13 1.5 4 h 2 V 58 32.5 32 0 Z m 8,0 v 1.5 9.5 14 2.5 8 1.5 1.5 9.5 h 2 V 35.5 27.5 25 0 Z m 4,0 v 6.5 3 1.5 6.5 12.5 11 2.5 11 1.5 6 h 2 V 56 43.5 6.5 4 0 Z m 4,0 v 6 3 2.5 4.5 6.5 18 1.5 4 2.5 4.5 6.5 h 2 V 48.5 11.5 5 3.5 0 Z m 4,0 v 5.5 1 10 5.5 18 2.5 4 1.5 5.5 5.5 h 2 V 48 42.5 5.5 3 0 Z m 4,0 v 0.5 8.5 2.5 5.5 2.5 11 11 1.5 11 2.5 5.5 h 2 V 56.5 19.5 6 4.5 0.5 0 Z m 4,0 v 0.5 0.5 10.5 14 1.5 8 2.5 0.5 10.5 h 2 V 37.5 0.5 0 Z m 8,0 v 6 11 2 0.5 2 9 1.5 11 13 2.5 3.5 h 2 v -3.5 -37 -2 V 19 0 Z m 4,0 v 7.5 8 1.5 0.5 1.5 9 2 1 2.5 4 7 4 6 1.5 6 h 2 V 37.5 33.5 31 0 Z m 4,0 v 1.5 1.5 9 2 0.5 11 15 1.5 9.5 1.5 9 h 2 V 51.5 49 42 14.5 14 0 Z m 4,0 v 4.5 16 1.5 6 2 0.5 2 0.5 8.5 2 16 1.5 1 h 2 V 32.5 30.5 30 0 Z M 18,7 v 2.5 11 6.5 17 2.5 5 1.5 4.5 4.5 h 2 V 53 46.5 9.5 7 Z m 28,0.5 v 6.5 2.5 3.5 7.5 17 1.5 5 2.5 3.5 5 h 2 V 53.5 16.5 9 7.5 Z M 2,30.5 V 34 62 l 2,2 V 30.5 Z"
     id="path3992"
     inkscape:connector-curvature="0" />
  <path
     style="fill:#1f3500;fill-rule:nonzero;fill-opacity:0.18556701"
     d="M 60 2 L 60 33 L 35.677734 62 L 64 62 L 64 37 L 64 6 L 60 2 z "
     id="path3900" />
  <path
     d="M 0,2 60,2 60,33 34,64 0,64 z"
     id="path3982"
     style="fill:#36a56f;fill-rule:nonzero;fill-opacity:1" />
  <path
     style="color:#000000;display:inline;overflow:visible;visibility:visible;fill:#e0ff01;fill-opacity:0.06921944;fill-rule:nonzero;stroke:none;stroke-width:1;marker:none;enable-background:accumulate"
     d="M 0 2 L 0 4 L 0 20 L 0 22 L 0 22.5 L 0 24.5 L 0 28.5 L 0 30 L 0 33.5 L 0 34 L 0 41 L 0 43 L 0 59 L 0 61.5 L 0 62 L 2 64 L 2 61.5 L 2 24.5 L 2 22.5 L 2 22 L 2 4 L 2 2 L 0 2 z M 4 2 L 4 3 L 4 3.5 L 4 5.5 L 4 12.5 L 4 14 L 4 14.5 L 4 25 L 4 40 L 4 42.5 L 4 53.5 L 4 64 L 6 64 L 6 51 L 6 49.5 L 6 42.5 L 6 5.5 L 6 3.5 L 6 3 L 6 2 L 4 2 z M 8 2 L 8 7 L 8 15 L 8 17 L 8 17.5 L 8 19.5 L 8 28.5 L 8 30.5 L 8 31.5 L 8 33 L 8 44 L 8 48 L 8 54 L 8 56.5 L 8 64 L 10 64 L 10 56.5 L 10 19.5 L 10 17.5 L 10 17 L 10 2 L 8 2 z M 12 2 L 12 6.5 L 12 17.5 L 12 19 L 12 19.5 L 12 30 L 12 32 L 12 32.5 L 12 43.5 L 12 56.5 L 12 58 L 12 64 L 14 64 L 14 58 L 14 32.5 L 14 32 L 14 2 L 12 2 z M 20 2 L 20 11 L 20 25 L 20 27.5 L 20 35.5 L 20 37 L 20 38.5 L 20 48 L 22 48 L 22 35.5 L 22 27.5 L 22 25 L 22 2 L 20 2 z M 24 2 L 24 6.5 L 24 9.5 L 24 11 L 24 17.5 L 24 30 L 24 41 L 24 43.5 L 24 54.5 L 24 56 L 24 64 L 26 64 L 26 56 L 26 43.5 L 26 6.5 L 26 4 L 26 2 L 24 2 z M 28 2 L 28 6 L 28 9 L 28 11.5 L 28 16 L 28 22.5 L 28 40.5 L 28 42 L 28 46 L 28 48.5 L 28 53 L 28 59.5 L 30 59.5 L 30 48.5 L 30 11.5 L 30 5 L 30 3.5 L 30 2 L 28 2 z M 32 2 L 32 5.5 L 32 6.5 L 32 16.5 L 32 22 L 32 40 L 32 42.5 L 32 46.5 L 32 48 L 32 53.5 L 32 59 L 34 59 L 34 48 L 34 42.5 L 34 5.5 L 34 3 L 34 2 L 32 2 z M 36 2 L 36 9 L 36 11.5 L 36 17 L 36 19.5 L 36 30.5 L 36 41.5 L 36 43 L 36 54 L 36 56.5 L 36 61.625 L 38 59.21875 L 38 56.5 L 38 19.5 L 38 6 L 38 4.5 L 38 2 L 36 2 z M 40 2 L 40 11.5 L 40 25.5 L 40 27 L 40 35 L 40 37.5 L 40 38 L 40 48.5 L 42 48.5 L 42 37.5 L 42 35 L 42 2 L 40 2 z M 48 2 L 48 6 L 48 17 L 48 19 L 48 19.5 L 48 21.5 L 48 30.5 L 48 32 L 48 43 L 48 47.3125 L 50 44.9375 L 50 43 L 50 21.5 L 50 19.5 L 50 19 L 50 2 L 48 2 z M 52 2 L 52 7.5 L 52 15.5 L 52 17 L 52 17.5 L 52 19 L 52 28 L 52 30 L 52 31 L 52 33.5 L 52 37.5 L 52 42.53125 L 54 40.15625 L 54 37.5 L 54 35 L 54 33.5 L 54 31 L 54 2 L 52 2 z M 56 2 L 56 3 L 56 12 L 56 14 L 56 14.5 L 56 25.5 L 56 37.78125 L 58 35.375 L 58 25.5 L 58 14.5 L 58 14 L 58 2 L 56 2 z M 16 7 L 16 9.5 L 16 20.5 L 16 27 L 16 44 L 16 46.5 L 16 51.5 L 16 53 L 16 57.5 L 16 64 L 18 64 L 18 53 L 18 46.5 L 18 9.5 L 18 7 L 16 7 z M 44 7.5 L 44 14 L 44 16.5 L 44 20 L 44 27.5 L 44 44.5 L 44 46 L 44 51 L 44 52.0625 L 44.894531 51 L 44.90625 51 L 46 49.6875 L 46 46 L 46 16.5 L 46 9 L 46 7.5 L 44 7.5 z "
     id="path4002" />
  <path
     d="m 26,11 -8,10 5,0 0,17 6,0 0,-17 5,0 z m -14,16 0,17 -5,0 8,10 8,-10 -5,0 0,-17 z"
     id="path3858"
     style="fill:#e5f0d6;fill-rule:nonzero;color:#000000;fill-opacity:1;stroke:none;stroke-width:1;marker:none;visibility:visible;display:inline;overflow:visible;enable-background:accumulate" />
  <path
     d="M 34,64 60,33 c -2.328567,2.776369 -4.36141,3 -11,3 H 37 v 15 c 0,6.64407 0.04437,9.37018 -3,13 z"
     id="path4278"
     style="fill:#218c63;fill-rule:nonzero;fill-opacity:1" />
</svg>
